X:1
T:Title
%%score { ( 1 3 4 ) | ( 2 5 ) }
L:1/8
M:4/4
K:Ab
V:1 treble nm="Grand Piano"
V:3 treble 
V:4 treble 
V:2 bass 
V:5 bass 
V:1
 z4 z2[Q:1/4=100] E>E | EAAA c2 A2 | z2 [ce]>[ce] [ce]2 E>E | EAAA c2 A2 | z2 [de]>[de] [de]2 E>E | %5
 EAAA c2 [Ge]2 | [Fe]6 z2 | [DB]EBE Bc/d/ c>B |[M:3/4] [CA]6 |[M:1/4] A>A |[M:4/4] AG z2 B,2 A>A | %11
 z2 c4 z2 | AG z2 B,2 A>B |[M:5/4] [Ac]d[A=d][Ae][Gf]e _d B3 | %14
[M:4/4] [CE][CA][CA][CA] [Ec]2 [_Ge]2 | %15
 [Fe]6 z2[Q:1/4=97][Q:1/4=94][Q:1/4=91][Q:1/4=88][Q:1/4=84][Q:1/4=81][Q:1/4=78] | BEBE Bc/d/ c>B | %17
[M:9/8] [CA]8- [CA] |] %18
V:2
 z8 | A,,2 [E,A,C]2 [E,A,C]2 [E,A,C]2 | A,,2 [E,A,C]2 [E,A,C]2 [E,A,C]2 | %3
 A,,2 [E,A,C]2 [E,A,C]2 [E,A,C]2 | E,,2 [E,G,B,D]>[E,G,B,D] [E,G,B,D]2 [E,G,B,D]2 | %5
 A,,2 [E,A,C]2 [E,A,C]2 [E,A,C]2 | D,2 F,2 z[K:treble] FFE | z DDD D[K:treble]E/F/[K:bass] E>D | %8
[M:3/4] A,,2 A,,2 A,,2 |[M:1/4] z2 |[M:4/4] C,2 [C,=E,G,B,]2 [C,E,G,]2 [C,F,A,]2 | %11
 C,2 [C,=E,G,B,]2 [C,E,G,]2 [C,F,A,]2 | C,2 [G,B,]2 G,2 [C,F,A,]2 | %13
[M:5/4] z A [E,A,C]2 z[K:treble] G G G3 | %14
[M:4/4][K:bass] [A,,A,][A,,A,][A,,A,][A,,A,] [A,,A,]2 [C,A,]2 | [D,A,]2 D,2 D,[D,A,][D,G,][D,A,] | %16
 [E,G,D][E,G,D][E,G,D][E,G,] [E,G,D]E/F/ [E,G,E]>[E,G,D] |[M:9/8] [A,,E,A,]8- [A,,E,A,] |] %18
V:3
 x8 | x8 | E6 z2 | x8 | E6 z2 | x8 | z2 [A,D]2 z =d_dc | x8 |[M:3/4] z2 A,2 A,2 |[M:1/4] x2 | %10
[M:4/4] z2 C4 z2 | AG z2 B,2 A>A | z2 C4 z2 |[M:5/4] x10 |[M:4/4] x8 | z2 A,2 A,[F=d][F_d][Ec] | %16
 x8 |[M:9/8] x9 |] %18
V:4
 x8 | x8 | x8 | x8 | x8 | x8 | z4 [A,D]2 z2 | x8 |[M:3/4] x6 |[M:1/4] x2 |[M:4/4] x8 | x8 | x8 | %13
[M:5/4] x10 |[M:4/4] x8 | x8 | x8 |[M:9/8] x9 |] %18
V:5
 x8 | x8 | x8 | x8 | x8 | x8 | z4 F,2[K:treble] [F,A,D]2 | %7
 E,,2 [E,G,]2 [E,G,]2[K:treble][K:bass] [E,G,]2 |[M:3/4] x6 |[M:1/4] x2 |[M:4/4] x8 | x8 | x8 | %13
[M:5/4] A,,2 z2 [E,G,B,D]6[K:treble] |[M:4/4][K:bass] x8 | x8 | z4 z [E,G,] z2 |[M:9/8] x9 |] %18

